X:1
T:AĞRI DAĞI EFSANESİ
T:AĞRI DAĞI EFSANESİ
T:Murat Ses
C:Murat Ses
L:1/8
Q:1/4=90
M:4/4
K:C
V:1 treble nm="Keman" snm="Kem."
V:1
 A3 A A2- A^F/G/ | A3 A A2 _B/A/G | A3 A A2- A^F/G/ | A3 A A2 _B/A/G |: A2 Ae e2 e2 | effe eddc | %6
 d2 cd d2 d2 | dggd dccB | c2 Bc c2 c2 | BccB BAAG | G2 Bc cBBA | A3 A2 A A^F/G/ :: A2 ^fg g2 g2 | %13
 ^fggf feed | d2 ^fg g2 g2 | ^fgaf geed | d2 ^fg g2 g2 | ^fggf feed | d2 ^fg g2 g2 | ^fgaa a4 | %20
 c'bba agge | eddc cB _B/A/G | A3 A2 A A^F/G/ | A2- AA A2 _B/A/G :| A8 |] %25

